X: 1623
T: Rûhumda Bahar Açtı
C: Artaki Candan
O: Turkey
F: http://compmusic.upf.edu/node/140
N: ferahnak--sarki--semai--ruhumda_bahar--artaki_candan
N: makam= ferahnak
N: form= sarki
N: usul= semai = 3/4
M: 3/4
L: 1/16
K: C ^f ^c  
Q: 1/4=123
%%MIDI tuningsystem comma53
d4 f4 f4  | d4 f4 f4  | g2f2 e2d2 e2g2  | f12  | \
w:  ARANAĞME  |   |   |   | 
d4 g4 g4  | d4 g4 g4  | g2f2 e2d2 e2f2  | 
w:   |   |   | 
g12  | g2f2 g4 a4  | e8 d4  | d2=c2 d4 e4  | \
w:   |   |   |   | 
=c4 B4 A4  | A4 B4 d4  | =c4 B4 A4  | A2B2 A2G2 G2F2  | 
w:   |   |   |   | 
F8 z4  | d4 f4 f4  | d4 f4 f4  | g2f2 e2d2 e2g2  | f12  | \
w:   |  ARANAĞME  |   |   |   | 
d4 g4 g4  | d4 g4 g4  | 
w:   |   | 
g2f2 e2d2 e2f2  | g12  | g2f2 g4 a4  | e8 d4  | \
w:   |   |   |   | 
d2=c2 d4 e4  | =c4 B4 A4  | A4 B4 d4  | 
w:   |   |   | 
=c4 B4 A4  | A2B2 A2G2 G2F2  | F8 z4  | f12  | a12  | \
w:   |   |   |  Rû  |  hum  | 
g2f2 e4 g4  | f4 e4 d4  | c12  | 
w:  da  *  *  ba  |  har   |  aç  | 
d2c2 d4 B4  | A12  | A8 z4  | f8 e2d2  | g8 f2e2  | a12  | \
w:  tı  *  *  o  |  nun   |   |  bül  |   |   | 
a2g2 f2e2 d4  | f8 a4  | 
w:   |  bü lü   | 
g8 g2f2  | f12  | g2f2 e2d2 e2f2  | g12  | \
w:  sen  |  din    |  SAZ  |  Her   | 
g2f2 e2d2 e2f2  | g4 f4 a4  | e8 d4  | 
w:  gün   |  ba *  na   |  bir   | 
d8 B4  | =c8 B2A2  | A12  | A8 z4  | A4 B4 c4  | \
w:  ta  |  ze  çi  |  çek   |   |  neş  | 
d2c2 d8  | A4 d4 f4  | a8 g4  | f8 d4  | 
w:   |   |   |  e si   | 
e4 =f2e2 d2c2  | d12  | d8 z4  | d8 a4  | a8 g4  | \
w:  ver  |  din    |   |  Her   |  gün   | 
g4 =f4 e4  | e4 d4 =c4  | d8 B4  | =c8 B2A2  | 
w:  ba *  na   |  bir   |  ta  |  ze  çi  | 
A12  | A8 z4  | A4 B4 c4  | d4 =c4 B4  | A4 G4 F4  | A12  | \
w:  çek   |   |  neş  |   |   |   | 
A8 F4  | G8 G2F2  | F12  | a12  | a12  | 
w:  e si   |  ver  |  din    |  SAZ  |  Gön  | 
a12  | a2b2 g4 g4  | g2a2 f8  | f2g2 e8  | \
w:  lüm  |  de  *  *  a  |  çan   |  gon  | 
e8 d4  | a12  | a12  | b2=c'2 b2c'2 b2a2  | 
w:  ce le  |  rin   |   |  şen   | 
a2b2 a2b2 a2g2  | g2a2 g2a2 g2a2  | a2g2 f2^e2 f4  | \
w:   |   |   | 
a8 a4  | a4 g4 g2f2  | 
w:  gü lü   |  sen  | 
f12  | g2f2 e2d2 e2f2  | g12  | g2f2 e2d2 e2f2  | \
w:  din    |  SAZ  |  Her   |  gün   | 
g4 f4 a4  | e8 d4  | d8 B4  | 
w:  ba *  na   |  bir   |  ta  | 
=c8 B2A2  | A12  | A8 z4  | A4 B4 c4  | d2c2 d8  | \
w:  ze  çi  |  çek   |   |  neş  |   | 
A4 d4 f4  | a8 g4  | f8 d4  | e4 =f2e2 d2c2  | 
w:   |   |  e si   |  ver  | 
d12  | d8 z4  | d8 a4  | a8 g4  | g4 =f4 e4  | \
w:  din    |   |  Her   |  gün   |  ba *  na   | 
e4 d4 =c4  | d8 B4  | =c8 B2A2  | A12  | A8 z4  | 
w:  bir   |  ta  |  ze  çi  |  çek   |   | 
A4 B4 c4  | d4 =c4 B4  | A4 G4 F4  | A12  | \
w:  neş  |   |   |   | 
A8 F4  | G8 G2F2  | F12  | |


